remix/Map/map-2-fill.svg

<svg viewBox="0 0 24 24" fill="currentColor" xmlns="http://www.w3.org/2000/svg"><path d="M2 5L9 2L15 5L21.303 2.2987C21.5569 2.18992 21.8508 2.30749 21.9596 2.56131C21.9862 2.62355 22 2.69056 22 2.75827V19L15 22L9 19L2.69696 21.7013C2.44314 21.8101 2.14921 21.6925 2.04043 21.4387C2.01375 21.3765 2 21.3094 2 21.2417V5ZM15 19.7639V7.17594L14.9352 7.20369L9 4.23607V16.8241L9.06476 16.7963L15 19.7639Z"/></svg>

<svg viewBox="0 0 24 24" xmlns="http://www.w3.org/2000/svg"><path fill="none" d="M0 0h24v24H0Z"/><path d="M2 5l7-3 6 3 6.3-2.701v-.001c.25-.11.54 0 .65.26 .02.06.04.12.04.19v16.241l-7 3 -6-3 -6.31 2.7H2.67c-.26.1-.55-.01-.66-.27 -.03-.07-.05-.13-.05-.2V4.97Zm13 14.764V7.176l-.07.02 -5.94-2.97V16.8l.06-.03 5.93 2.968Z"/></svg>
